X:1
T:Jagersquadrille
C:Trad.
Z:Bart Vanhaverbeke 
P:(ABC)x4
L:1/8
M:2/4
K:G
P:A
B2 c2 | B/c/B/A/ GD | GG/A/ BD | GG/A/ BD | B2 c2 | B/c/B/A/ GD | GG/B/ d>c | BA G2 :|]
P:B
Bd gd | BB/A/ GD | GG/A/ BD | GG/A/ BD | Bd gd | BB/A/ GD | GB d>c | BA G2 :|]
P:C
A2 B2 | cc/B/ cB | B2 c2 | dd/c/ dB | A2 B2 | cc/B/ cB | BB AA | G2 z2 :|]
